X: 3342
T:Gan Ainm
R:jig
M:6/8
L:1/8
K:D
FAd ~f3|afe d2A|B/c/dB AFA|dAF ~E3|!
FAd ~f3|afe d2A|B/c/de fdB|AFE D3:|!
|:fdB ~A3|DFA def|gef ged|ced cBA|!
fdB ~A3|DFA def|gef gec|edc d3:|!
|:Adf ~a3|agf agf|Ace ~g3|gfe gfe|!
~f3 ~g3|~a3 bag|faf gec|edc d3:|!
